card-remove.svg

<svg fill="currentColor" viewBox="0 0 24 24"><path d="m20.41 19 2.13 2.12-1.42 1.42L19 20.41l-2.12 2.13-1.41-1.42L17.59 19l-2.12-2.12 1.41-1.41L19 17.59l2.12-2.12 1.42 1.41zM19 13c1.09 0 2.12.3 3 .81V6c0-1.11-.89-2-2-2H4a2 2 0 0 0-2 2v12a2 2 0 0 0 2 2h9.09c-.05-.33-.09-.66-.09-1 0-3.31 2.69-6 6-6"/></svg>

<svg  viewBox="0 0 24 24" fill="currentColor"><path  d="M20.41 19L22.54 21.12L21.12 22.54L19 20.41L16.88 22.54L15.47 21.12L17.59 19L15.47 16.88L16.88 15.47L19 17.59L21.12 15.47L22.54 16.88L20.41 19M19 13C20.09 13 21.12 13.3 22 13.81V6C22 4.89 21.11 4 20 4H4C2.9 4 2 4.89 2 6V18C2 19.11 2.9 20 4 20H13.09C13.04 19.67 13 19.34 13 19C13 15.69 15.69 13 19 13Z"/></svg>
